X: 1
T: Kesh, The
C: Trad
R: Jig
L: 1/8
M: 6/8
K: G
Z: ABC transcription by Verge Roller
|: D | "G" G2 G GAB | "D" ABA ABd | "G" edd gdd | "G" edB "D" dBA |
"G" G2 G GAB | "D" ABA ABd | "G" edd "Bm" gdB | "D" AGF "G" G2 :|
|: A | "G" B2 B dBd | "C" ege "G" dBG | "G" BAB dBG | "D" ABA AGA |
"G" B2 B dBd | "C" ege "G" dBd | "G" gfg "D" aga | "G" bgg g2 :|
r: 32
